; generated by PrusaSlicer 2.2.0+linux-x64 on 2020-08-23 at 07:31:32 UTC

; 

; external perimeters extrusion width = 0.60mm
; perimeters extrusion width = 0.50mm
; infill extrusion width = 0.50mm
; solid infill extrusion width = 0.50mm
; top infill extrusion width = 0.45mm
; first layer extrusion width = 0.42mm

M73 P0 R47
M73 Q0 S47
M201 X1000 Y1000 Z200 E5000 ; sets maximum accelerations, mm/sec^2
M203 X200 Y200 Z12 E120 ; sets maximum feedrates, mm/sec
M204 P1250 R1250 T1250 ; sets acceleration (P, T) and retract acceleration (R), mm/sec^2
M205 X8.00 Y8.00 Z0.40 E4.50 ; sets the jerk limits, mm/sec
M205 S0 T0 ; sets the minimum extruding and travel feed rate, mm/sec
M107
M862.3 P "MK3S" ; printer model check
M862.1 P0.4 ; nozzle diameter check
M115 U3.9.0 ; tell printer latest fw version
G90 ; use absolute coordinates
M83 ; extruder relative mode
M104 S215 ; set extruder temp
M140 S60 ; set bed temp
M190 S60 ; wait for bed temp
M109 S215 ; wait for extruder temp
G28 W ; home all without mesh bed level
G80 ; mesh bed leveling
G1 Y-3.0 F1000.0 ; go outside print area
G92 E0.0
G1 X60.0 E9.0 F1000.0 ; intro line
M73 Q0 S47
M73 P0 R47
G1 X100.0 E12.5 F1000.0 ; intro line
G92 E0.0
M221 S95

; Don't change E values below. Excessive value can damage the printer.

M907 E538 ; set extruder motor current
G21 ; set units to millimeters
G90 ; use absolute coordinates
M83 ; use relative distances for extrusion
M900 K0.06 ; Filament gcode LA 1.5
M900 K30 ; Filament gcode LA 1.0
;BEFORE_LAYER_CHANGE
G92 E0.0
;0.2


G1 E-0.80000 F2100.00000
G1 Z0.600 F10800.000
;AFTER_LAYER_CHANGE
;0.2
G1 X109.523 Y88.333
G1 Z0.200
G1 E0.80000 F2100.00000
M204 S1000
G1 F1200.000
G1 X110.442 Y88.124 E0.02954
G1 X139.504 Y88.123 E0.91122
G1 X140.381 Y88.292 E0.02802
G1 X141.137 Y88.776 E0.02813
G1 X141.659 Y89.506 E0.02813
G1 X141.874 Y90.373 E0.02802
G1 X141.877 Y119.550 E0.91480
G1 X141.703 Y120.392 E0.02696
G1 X141.245 Y121.115 E0.02684
G1 X140.456 Y121.676 E0.03036
G1 X139.509 Y121.877 E0.03036
G1 X110.450 Y121.877 E0.91110
G1 X109.608 Y121.703 E0.02696
G1 X108.885 Y121.245 E0.02684
G1 X108.324 Y120.456 E0.03036
G1 X108.123 Y119.509 E0.03036
G1 X108.123 Y90.450 E0.91110
G1 X108.297 Y89.608 E0.02696
G1 X108.755 Y88.885 E0.02684
G1 X109.474 Y88.368 E0.02778
G1 F8640.000
G1 X110.442 Y88.124 E-0.23037
G1 X112.736 Y88.124 E-0.52963
G1 E-0.04000 F2100.00000
G1 Z0.800 F10800.000
G1 X119.491 Y99.491
G1 Z0.200
G1 E0.80000 F2100.00000
G1 F1200.000
G1 X120.672 Y98.522 E0.04789
G1 X122.019 Y97.802 E0.04789
G1 X123.480 Y97.359 E0.04789
G1 X125.000 Y97.209 E0.04789
G1 X126.520 Y97.359 E0.04789
G1 X127.981 Y97.802 E0.04789
G1 X129.328 Y98.522 E0.04789
G1 X130.509 Y99.491 E0.04789
G1 X131.478 Y100.672 E0.04789
G1 X132.198 Y102.019 E0.04789
G1 X132.641 Y103.480 E0.04789
G1 X132.791 Y105.000 E0.04789
G1 X132.641 Y106.520 E0.04789
G1 X132.198 Y107.981 E0.04789
G1 X131.478 Y109.328 E0.04789
G1 X130.509 Y110.509 E0.04789
G1 X129.328 Y111.478 E0.04789
G1 X127.981 Y112.198 E0.04789
G1 X126.520 Y112.641 E0.04789
G1 X125.000 Y112.791 E0.04789
G1 X123.480 Y112.641 E0.04789
G1 X122.019 Y112.198 E0.04789
G1 X120.672 Y111.478 E0.04789
G1 X119.491 Y110.509 E0.04789
G1 X118.522 Y109.328 E0.04789
G1 X117.802 Y107.981 E0.04789
G1 X117.359 Y106.520 E0.04789
G1 X117.209 Y105.000 E0.04789
G1 X117.359 Y103.480 E0.04789
G1 X117.802 Y102.019 E0.04789
G1 X118.522 Y100.672 E0.04789
G1 X119.453 Y99.537 E0.04601
G1 X119.744 Y99.777 F10800.000
G1 F1200.000
G1 X120.882 Y98.837 E0.04626
G1 X122.164 Y98.152 E0.04556
G1 X123.554 Y97.730 E0.04556
G1 X125.000 Y97.588 E0.04556
G1 X126.446 Y97.730 E0.04556
G1 X127.836 Y98.152 E0.04556
G1 X129.118 Y98.837 E0.04556
G1 X130.241 Y99.759 E0.04556
G1 X131.163 Y100.882 E0.04556
G1 X131.848 Y102.164 E0.04556
G1 X132.270 Y103.554 E0.04556
G1 X132.412 Y105.000 E0.04556
G1 X132.270 Y106.446 E0.04556
G1 X131.848 Y107.836 E0.04556
G1 X131.163 Y109.118 E0.04556
G1 X130.241 Y110.241 E0.04556
G1 X129.118 Y111.163 E0.04556
G1 X127.836 Y111.848 E0.04556
G1 X126.446 Y112.270 E0.04556
G1 X125.000 Y112.412 E0.04556
G1 X123.554 Y112.270 E0.04556
G1 X122.164 Y111.848 E0.04556
G1 X120.882 Y111.163 E0.04556
G1 X119.759 Y110.241 E0.04556
G1 X118.837 Y109.118 E0.04556
G1 X118.152 Y107.836 E0.04556
G1 X117.730 Y106.446 E0.04556
G1 X117.588 Y105.000 E0.04556
G1 X117.730 Y103.554 E0.04556
G1 X118.152 Y102.164 E0.04556
G1 X118.837 Y100.882 E0.04556
G1 X119.706 Y99.823 E0.04296
G1 X119.640 Y99.390 F10800.000
G1 F8640.000
G1 X120.882 Y98.837 E-0.35429
G1 X122.164 Y98.152 E-0.33550
G1 X122.455 Y98.064 E-0.07021
G1 E-0.04000 F2100.00000
G1 Z0.800 F10800.000
G1 X111.287 Y91.287
G1 Z0.200
G1 E0.80000 F2100.00000
G1 F1200.000
G1 X138.713 Y91.287 E0.85992
G1 X138.713 Y118.713 E0.85992
G1 X111.287 Y118.713 E0.85992
G1 X111.287 Y91.347 E0.85804
G1 X110.910 Y90.910 F10800.000
G1 F1200.000
G1 X139.090 Y90.910 E0.88356
G1 X139.090 Y119.090 E0.88356
G1 X110.910 Y119.090 E0.88356
G1 X110.910 Y90.970 E0.88168
G1 X111.296 Y91.014 F10800.000
G1 F8640.000
G1 X114.201 Y90.963 E-0.76000
G1 E-0.04000 F2100.00000
G1 Z0.800 F10800.000
G1 X112.164 Y118.600
G1 Z0.200
G1 E0.80000 F2100.00000
G1 F1200.000
G1 X111.570 Y118.006 E0.02636
G1 X111.570 Y117.472 E0.01677
G1 X112.528 Y118.430 E0.04254
G1 X113.062 Y118.430 E0.01677
G1 X111.570 Y116.938 E0.06626
G1 X111.570 Y116.404 E0.01677
G1 X113.596 Y118.430 E0.08998
G1 X114.130 Y118.430 E0.01677
G1 X111.570 Y115.870 E0.11369
G1 X111.570 Y115.336 E0.01677
G1 X114.664 Y118.430 E0.13741
G1 X115.198 Y118.430 E0.01677
G1 X111.570 Y114.802 E0.16113
G1 X111.570 Y114.268 E0.01677
G1 X115.732 Y118.430 E0.18484
G1 X116.266 Y118.430 E0.01677
G1 X111.570 Y113.734 E0.20856
G1 X111.570 Y113.200 E0.01677
G1 X116.800 Y118.430 E0.23228
G1 X117.334 Y118.430 E0.01677
G1 X111.570 Y112.665 E0.25599
G1 X111.570 Y112.131 E0.01677
G1 X117.869 Y118.430 E0.27971
G1 X118.403 Y118.430 E0.01677
G1 X111.570 Y111.597 E0.30343
G1 X111.570 Y111.063 E0.01677
G1 X118.937 Y118.430 E0.32714
G1 X119.471 Y118.430 E0.01677
G1 X111.570 Y110.529 E0.35086
G1 X111.570 Y109.995 E0.01677
G1 X120.005 Y118.430 E0.37458
G1 X120.539 Y118.430 E0.01677
G1 X111.570 Y109.461 E0.39829
G1 X111.570 Y108.927 E0.01677
G1 X121.073 Y118.430 E0.42201
G1 X121.607 Y118.430 E0.01677
G1 X111.570 Y108.393 E0.44573
G1 X111.570 Y107.859 E0.01677
G1 X122.141 Y118.430 E0.46944
G1 X122.675 Y118.430 E0.01677
G1 X111.570 Y107.325 E0.49316
G1 X111.570 Y106.791 E0.01677
G1 X123.209 Y118.430 E0.51688
G1 X123.743 Y118.430 E0.01677
G1 X111.570 Y106.257 E0.54059
G1 X111.570 Y105.723 E0.01677
G1 X124.277 Y118.430 E0.56431
G1 X124.811 Y118.430 E0.01677
G1 X111.570 Y105.189 E0.58803
G1 X111.570 Y104.655 E0.01677
G1 X125.345 Y118.430 E0.61174
G1 X125.880 Y118.430 E0.01677
G1 X111.570 Y104.120 E0.63546
G1 X111.570 Y103.586 E0.01677
G1 X126.583 Y118.600 E0.66671
G1 F8640.000
G1 X124.256 Y116.272 E-0.76000
G1 E-0.04000 F2100.00000
G1 Z0.800 F10800.000
G1 X138.600 Y107.652
G1 Z0.200
G1 E0.80000 F2100.00000
G1 F1200.000
G1 X132.004 Y101.055 E0.29292
G1 X132.460 Y101.910 E0.03042
G1 X132.520 Y102.106 E0.00642
G1 X138.430 Y108.016 E0.26247
G1 X138.430 Y108.550 E0.01677
G1 X132.752 Y102.872 E0.25214
G1 X132.920 Y103.425 E0.01813
G1 X132.936 Y103.590 E0.00522
G1 X138.430 Y109.084 E0.24397
G1 X138.430 Y109.618 E0.01677
G1 X132.995 Y104.183 E0.24138
G1 X133.053 Y104.775 E0.01869
G1 X138.430 Y110.152 E0.23879
G1 X138.430 Y110.686 E0.01677
G1 X133.045 Y105.301 E0.23912
G1 X132.997 Y105.788 E0.01534
G1 X138.430 Y111.220 E0.24125
G1 X138.430 Y111.754 E0.01677
G1 X132.950 Y106.274 E0.24338
G1 X132.920 Y106.575 E0.00951
G1 X132.873 Y106.731 E0.00511
G1 X138.430 Y112.288 E0.24679
G1 X138.430 Y112.823 E0.01677
G1 X132.748 Y107.141 E0.25231
G1 X132.624 Y107.551 E0.01345
G1 X138.430 Y113.357 E0.25783
G1 X138.430 Y113.891 E0.01677
G1 X132.500 Y107.960 E0.26335
G1 X132.460 Y108.090 E0.00426
G1 X132.333 Y108.328 E0.00846
G1 X138.430 Y114.425 E0.27074
G1 X138.430 Y114.959 E0.01677
G1 X132.147 Y108.676 E0.27901
G1 X131.961 Y109.024 E0.01239
G1 X138.430 Y115.493 E0.28727
G1 X138.430 Y116.027 E0.01677
G1 X131.775 Y109.372 E0.29553
G1 X131.714 Y109.486 E0.00407
G1 X131.552 Y109.683 E0.00800
G1 X138.430 Y116.561 E0.30542
G1 X138.430 Y117.095 E0.01677
G1 X131.312 Y109.977 E0.31611
G1 X131.071 Y110.270 E0.01192
G1 X138.430 Y117.629 E0.32680
G1 X138.430 Y118.163 E0.01677
G1 X130.830 Y110.563 E0.33749
G1 X130.710 Y110.710 E0.00596
G1 X130.563 Y110.830 E0.00596
G1 X138.163 Y118.430 E0.33749
G1 X137.629 Y118.430 E0.01677
G1 X130.270 Y111.071 E0.32680
G1 X129.977 Y111.312 E0.01192
G1 X137.095 Y118.430 E0.31611
G1 X136.561 Y118.430 E0.01677
G1 X129.683 Y111.553 E0.30542
G1 X129.486 Y111.714 E0.00800
G1 X129.372 Y111.775 E0.00407
G1 X136.027 Y118.430 E0.29553
G1 X135.493 Y118.430 E0.01677
G1 X129.024 Y111.961 E0.28727
G1 X128.676 Y112.147 E0.01239
G1 X134.959 Y118.430 E0.27900
G1 X134.425 Y118.430 E0.01677
G1 X128.328 Y112.333 E0.27074
G1 X128.090 Y112.460 E0.00846
G1 X127.960 Y112.500 E0.00427
G1 X133.891 Y118.430 E0.26335
G1 X133.356 Y118.430 E0.01677
G1 X127.550 Y112.624 E0.25783
G1 X127.141 Y112.748 E0.01345
G1 X132.822 Y118.430 E0.25231
M73 Q2 S46
G1 X132.288 Y118.430 E0.01677
G1 X126.731 Y112.873 E0.24679
M73 P2 R46
G1 X126.575 Y112.920 E0.00510
G1 X126.274 Y112.950 E0.00952
G1 X131.754 Y118.430 E0.24338
G1 X131.220 Y118.430 E0.01677
G1 X125.788 Y112.997 E0.24125
G1 X125.301 Y113.045 E0.01534
G1 X130.686 Y118.430 E0.23912
G1 X130.152 Y118.430 E0.01677
G1 X124.775 Y113.053 E0.23879
G1 X124.182 Y112.995 E0.01869
G1 X129.618 Y118.430 E0.24138
G1 X129.084 Y118.430 E0.01677
G1 X123.590 Y112.936 E0.24397
G1 X123.425 Y112.920 E0.00522
G1 X122.872 Y112.752 E0.01813
G1 X128.550 Y118.430 E0.25214
G1 X128.016 Y118.430 E0.01677
G1 X122.105 Y112.520 E0.26247
G1 X121.910 Y112.460 E0.00642
G1 X121.055 Y112.004 E0.03043
G1 X127.482 Y118.430 E0.28539
G1 X126.948 Y118.430 E0.01677
G1 X111.570 Y103.052 E0.68289
G1 X111.570 Y102.518 E0.01677
G1 X117.996 Y108.945 E0.28539
G1 X117.540 Y108.090 E0.03043
G1 X117.480 Y107.895 E0.00642
G1 X111.570 Y101.984 E0.26247
G1 X111.570 Y101.450 E0.01677
G1 X117.248 Y107.128 E0.25214
G1 X117.080 Y106.575 E0.01813
G1 X117.064 Y106.410 E0.00522
G1 X111.570 Y100.916 E0.24397
G1 X111.570 Y100.382 E0.01677
G1 X117.005 Y105.818 E0.24138
G1 X116.947 Y105.225 E0.01869
G1 X111.570 Y99.848 E0.23879
G1 X111.570 Y99.314 E0.01677
G1 X116.955 Y104.699 E0.23912
G1 X117.003 Y104.212 E0.01534
G1 X111.570 Y98.780 E0.24125
G1 X111.570 Y98.246 E0.01677
G1 X117.050 Y103.726 E0.24338
G1 X117.080 Y103.425 E0.00952
G1 X117.127 Y103.269 E0.00510
G1 X111.570 Y97.712 E0.24679
G1 X111.570 Y97.178 E0.01677
G1 X117.252 Y102.859 E0.25231
G1 X117.376 Y102.450 E0.01345
G1 X111.570 Y96.644 E0.25783
G1 X111.570 Y96.109 E0.01677
G1 X117.500 Y102.040 E0.26335
G1 X117.540 Y101.910 E0.00427
G1 X117.667 Y101.672 E0.00846
G1 X111.570 Y95.575 E0.27074
G1 X111.570 Y95.041 E0.01677
G1 X117.853 Y101.324 E0.27900
G1 X118.039 Y100.976 E0.01239
G1 X111.570 Y94.507 E0.28727
G1 X111.570 Y93.973 E0.01677
G1 X118.225 Y100.628 E0.29553
G1 X118.286 Y100.514 E0.00407
G1 X118.447 Y100.317 E0.00800
G1 X111.570 Y93.439 E0.30542
G1 X111.570 Y92.905 E0.01677
G1 X118.688 Y100.023 E0.31611
G1 X118.929 Y99.730 E0.01192
G1 X111.570 Y92.371 E0.32680
G1 X111.570 Y91.837 E0.01677
G1 X119.170 Y99.437 E0.33749
G1 X119.290 Y99.290 E0.00596
G1 X119.437 Y99.170 E0.00596
G1 X111.837 Y91.570 E0.33749
G1 X112.371 Y91.570 E0.01677
G1 X119.730 Y98.929 E0.32680
G1 X120.023 Y98.688 E0.01192
G1 X112.905 Y91.570 E0.31611
G1 X113.439 Y91.570 E0.01677
G1 X120.317 Y98.448 E0.30542
G1 X120.514 Y98.286 E0.00800
G1 X120.628 Y98.225 E0.00407
G1 X113.973 Y91.570 E0.29553
G1 X114.507 Y91.570 E0.01677
G1 X120.976 Y98.039 E0.28727
G1 X121.324 Y97.853 E0.01239
G1 X115.041 Y91.570 E0.27901
G1 X115.575 Y91.570 E0.01677
G1 X121.672 Y97.667 E0.27074
G1 X121.910 Y97.540 E0.00846
G1 X122.040 Y97.500 E0.00426
G1 X116.109 Y91.570 E0.26335
G1 X116.643 Y91.570 E0.01677
G1 X122.449 Y97.376 E0.25783
G1 X122.859 Y97.252 E0.01345
G1 X117.177 Y91.570 E0.25231
G1 X117.712 Y91.570 E0.01677
G1 X123.269 Y97.127 E0.24679
G1 X123.425 Y97.080 E0.00511
G1 X123.726 Y97.050 E0.00951
G1 X118.246 Y91.570 E0.24338
G1 X118.780 Y91.570 E0.01677
G1 X124.212 Y97.003 E0.24125
G1 X124.699 Y96.955 E0.01534
G1 X119.314 Y91.570 E0.23912
G1 X119.848 Y91.570 E0.01677
G1 X125.225 Y96.947 E0.23879
G1 X125.817 Y97.005 E0.01869
G1 X120.382 Y91.570 E0.24138
G1 X120.916 Y91.570 E0.01677
G1 X126.410 Y97.064 E0.24397
G1 X126.575 Y97.080 E0.00522
G1 X127.128 Y97.248 E0.01813
G1 X121.450 Y91.570 E0.25214
G1 X121.984 Y91.570 E0.01677
G1 X127.894 Y97.480 E0.26247
G1 X128.090 Y97.540 E0.00642
G1 X128.945 Y97.996 E0.03042
G1 X122.518 Y91.570 E0.28538
G1 X123.052 Y91.570 E0.01677
G1 X138.430 Y106.948 E0.68290
G1 X138.430 Y106.414 E0.01677
G1 X123.586 Y91.570 E0.65918
G1 X124.120 Y91.570 E0.01677
G1 X138.430 Y105.880 E0.63546
G1 X138.430 Y105.346 E0.01677
G1 X124.654 Y91.570 E0.61175
G1 X125.188 Y91.570 E0.01677
G1 X138.430 Y104.812 E0.58803
G1 X138.430 Y104.277 E0.01677
G1 X125.723 Y91.570 E0.56431
G1 X126.257 Y91.570 E0.01677
G1 X138.430 Y103.743 E0.54060
G1 X138.430 Y103.209 E0.01677
G1 X126.791 Y91.570 E0.51688
G1 X127.325 Y91.570 E0.01677
G1 X138.430 Y102.675 E0.49316
G1 X138.430 Y102.141 E0.01677
G1 X127.859 Y91.570 E0.46945
G1 X128.393 Y91.570 E0.01677
G1 X138.430 Y101.607 E0.44573
G1 X138.430 Y101.073 E0.01677
G1 X128.927 Y91.570 E0.42202
G1 X129.461 Y91.570 E0.01677
G1 X138.430 Y100.539 E0.39830
G1 X138.430 Y100.005 E0.01677
G1 X129.995 Y91.570 E0.37458
G1 X130.529 Y91.570 E0.01677
G1 X138.430 Y99.471 E0.35087
G1 X138.430 Y98.937 E0.01677
G1 X131.063 Y91.570 E0.32715
G1 X131.597 Y91.570 E0.01677
G1 X138.430 Y98.403 E0.30343
G1 X138.430 Y97.869 E0.01677
G1 X132.131 Y91.570 E0.27972
G1 X132.665 Y91.570 E0.01677
G1 X138.430 Y97.335 E0.25600
G1 X138.430 Y96.801 E0.01677
G1 X133.199 Y91.570 E0.23228
G1 X133.734 Y91.570 E0.01677
G1 X138.430 Y96.266 E0.20857
G1 X138.430 Y95.732 E0.01677
G1 X134.268 Y91.570 E0.18485
G1 X134.802 Y91.570 E0.01677
G1 X138.430 Y95.198 E0.16113
G1 X138.430 Y94.664 E0.01677
G1 X135.336 Y91.570 E0.13742
G1 X135.870 Y91.570 E0.01677
G1 X138.430 Y94.130 E0.11370
G1 X138.430 Y93.596 E0.01677
G1 X136.404 Y91.570 E0.08998
G1 X136.938 Y91.570 E0.01677
G1 X138.430 Y93.062 E0.06627
G1 X138.430 Y92.528 E0.01677
G1 X137.472 Y91.570 E0.04255
G1 X138.006 Y91.570 E0.01677
G1 X138.600 Y92.164 E0.02637
G1 F8640.000
G1 X138.006 Y91.570 E-0.19390
G1 X137.472 Y91.570 E-0.12332
G1 X138.430 Y92.528 E-0.31288
G1 X138.430 Y93.062 E-0.12332
G1 X138.410 Y93.042 E-0.00659
G1 E-0.04000 F2100.00000
G1 Z0.800 F10800.000
G1 X127.370 Y102.630
G1 Z0.200
G1 E0.80000 F2100.00000
G1 F1200.000
G1 X127.787 Y103.138 E0.02060
G1 X128.097 Y103.717 E0.02060
G1 X128.287 Y104.346 E0.02060
G1 X128.352 Y105.000 E0.02060
G1 X128.287 Y105.654 E0.02060
G1 X128.097 Y106.283 E0.02060
G1 X127.787 Y106.862 E0.02060
G1 X127.370 Y107.370 E0.02060
G1 X126.862 Y107.787 E0.02060
G1 X126.283 Y108.097 E0.02060
G1 X125.654 Y108.287 E0.02060
G1 X125.000 Y108.352 E0.02060
G1 X124.346 Y108.287 E0.02060
G1 X123.717 Y108.097 E0.02060
G1 X123.138 Y107.787 E0.02060
G1 X122.630 Y107.370 E0.02060
G1 X122.213 Y106.862 E0.02060
G1 X121.903 Y106.283 E0.02060
G1 X121.713 Y105.654 E0.02060
G1 X121.648 Y105.000 E0.02060
G1 X121.713 Y104.346 E0.02060
G1 X121.903 Y103.717 E0.02060
G1 X122.213 Y103.138 E0.02060
G1 X122.630 Y102.630 E0.02060
G1 X123.138 Y102.213 E0.02060
G1 X123.717 Y101.903 E0.02060
G1 X124.346 Y101.713 E0.02060
G1 X125.000 Y101.648 E0.02060
G1 X125.654 Y101.713 E0.02060
G1 X126.283 Y101.903 E0.02060
G1 X126.862 Y102.213 E0.02060
G1 X127.324 Y102.592 E0.01872
G1 X127.756 Y102.526 F10800.000
G1 X127.562 Y102.301
G1 F1200.000
G1 X127.637 Y102.363 E0.00304
G1 X128.101 Y102.928 E0.02293
G1 X128.446 Y103.573 E0.02293
G1 X128.658 Y104.272 E0.02293
G1 X128.730 Y105.000 E0.02293
G1 X128.658 Y105.728 E0.02293
G1 X128.446 Y106.427 E0.02293
G1 X128.101 Y107.072 E0.02293
G1 X127.637 Y107.637 E0.02293
G1 X127.072 Y108.101 E0.02293
G1 X126.427 Y108.446 E0.02293
G1 X125.728 Y108.658 E0.02293
G1 X125.000 Y108.730 E0.02293
